common/src/main/resources/icons/plugins/resharper/Connect/Connection3.svg

<svg xmlns="http://www.w3.org/2000/svg" width="16" height="16" data-big="true" viewBox="0 0 24 24"><defs><mask id="a"><path fill="#fff" d="M0 0h24v24H0z"/><circle cx="18" cy="18" r="6"/></mask></defs><path fill="#64B5F6" d="M19 12v1.5c2.21 0 4 1.79 4 4 0 .82-.25 1.58-.67 2.21l-1.09-1.09c.17-.34.26-.72.26-1.12A2.5 2.5 0 0 0 19 15v1.5l-2.25-2.25-.03-.03c.06-.05.13-.09 2.28-2.22m0 11v-1.5c-2.21 0-4-1.79-4-4 0-.82.25-1.58.67-2.21l1.09 1.09c-.17.34-.26.72-.26 1.12A2.5 2.5 0 0 0 19 20v-1.5l2.25 2.25.03.03c-.06.05-.13.09-2.28 2.22m-6-5.5a6.5 6.5 0 0 1 6.5-6.5c1.28 0 2.47.38 3.5 1-.87-1.1-2.16-1.86-3.65-1.97A7.49 7.49 0 0 0 12 4C9.11 4 6.6 5.64 5.35 8.03A6.004 6.004 0 0 0 6 20h7.5c-.32-.77-.5-1.61-.5-2.5" mask="url(#a)"/><path fill="#64B5F6" d="M15 18a3 3 0 0 1 3-3c.5 0 .985.125 1.4.35l.73-.73A3.97 3.97 0 0 0 18 14a4 4 0 0 0-4 4h-1.5l2 2 2-2m5.5 0h1.5l-2-2-2 2H21a3 3 0 0 1-3 3c-.5 0-.985-.125-1.4-.35l-.73.73c.615.39 1.345.62 2.13.62a4 4 0 0 0 4-4"/></svg>

<!--
  - The MIT License (MIT)
  -
  - Copyright (c) 2015-2024 Elior "Mallowigi" Boukhobza
  -
  - Permission is hereby granted, free of charge, to any person obtaining a copy
  - of this software and associated documentation files (the "Software"), to deal
  - in the Software without restriction, including without limitation the rights
  - to use, copy, modify, merge, publish, distribute, sublicense, and/or sell
  - copies of the Software, and to permit persons to whom the Software is
  - furnished to do so, subject to the following conditions:
  -
  - The above copyright notice and this permission notice shall be included in all
  - copies or substantial portions of the Software.
  -
  - THE SOFTWARE IS PROVIDED "AS IS", WITHOUT WARRANTY OF ANY KIND, EXPRESS OR
  - IMPLIED, INCLUDING BUT NOT LIMITED TO THE WARRANTIES OF MERCHANTABILITY,
  - FITNESS FOR A PARTICULAR PURPOSE AND NONINFRINGEMENT. IN NO EVENT SHALL THE
  - AUTHORS OR COPYRIGHT HOLDERS BE LIABLE FOR ANY CLAIM, DAMAGES OR OTHER
  - LIABILITY, WHETHER IN AN ACTION OF CONTRACT, TORT OR OTHERWISE, ARISING FROM,
  - OUT OF OR IN CONNECTION WITH THE SOFTWARE OR THE USE OR OTHER DEALINGS IN THE
  - SOFTWARE.
  -->


<svg data-big="true" xmlns="http://www.w3.org/2000/svg" version="1.1" width="16px" height="16px" viewBox="0 0 24 24">
  <defs>
    <mask id="mask">
      <rect x="0" y="0" width="24" height="24" fill="white"/>
      <circle cx="18" cy="18" r="6" fill="black"/>
    </mask>
  </defs>
  <path fill="#64B5F6" mask="url(#mask)"
        d="M19 12V13.5C21.21 13.5 23 15.29 23 17.5C23 18.32 22.75 19.08 22.33 19.71L21.24 18.62C21.41 18.28 21.5 17.9 21.5 17.5C21.5 16.12 20.38 15 19 15V16.5L16.75 14.25L16.72 14.22C16.78 14.17 16.85 14.13 19 12M19 23V21.5C16.79 21.5 15 19.71 15 17.5C15 16.68 15.25 15.92 15.67 15.29L16.76 16.38C16.59 16.72 16.5 17.1 16.5 17.5C16.5 18.88 17.62 20 19 20V18.5L21.25 20.75L21.28 20.78C21.22 20.83 21.15 20.87 19 23M13 17.5C13 13.91 15.91 11 19.5 11C20.78 11 21.97 11.38 23 12C22.13 10.9 20.84 10.14 19.35 10.03C18.67 6.59 15.64 4 12 4C9.11 4 6.6 5.64 5.35 8.03C2.34 8.36 0 10.9 0 14C0 17.31 2.69 20 6 20H13.5C13.18 19.23 13 18.39 13 17.5Z"/>

  <path fill="#64B5F6" transform="scale(0.5) translate(24 24) rotate(90 12 12)"
        d="M12,18A6,6 0 0,1 6,12C6,11 6.25,10.03 6.7,9.2L5.24,7.74C4.46,8.97 4,10.43 4,12A8,8 0 0,0 12,20V23L16,19L12,15M12,4V1L8,5L12,9V6A6,6 0 0,1 18,12C18,13 17.75,13.97 17.3,14.8L18.76,16.26C19.54,15.03 20,13.57 20,12A8,8 0 0,0 12,4Z"/>
</svg>
